X:1
T:[ID 4-51r]
T:[ID 4-51r]
T:Bezeichnung standardisiert: Menuet [mit Trio] Menuet Con Trio In dieser Quelle auch als: Menuetto
T:Urheber unbekannt Erstbeleg: 1767 (Datum in der schriftlichen Quelle) Datum in der hier transkribierten schriftlichen Quelle: 1773
C:Urheber unbekannt
C:Erstbeleg: 1767 (Datum in der schriftlichen Quelle)
C:Datum in der hier transkribierten schriftlichen Quelle: 1773
%%score 1 2
L:1/8
M:3/4
K:D
V:1 treble 
V:2 treble 
V:1
 A2 | dfdfdf |{f} g4 ec | dfdfdf | e2 A2 A2 | (3def (3def (3def |{f} g4 ec | defgec | d4 :: fg | %10
 a4 ba | aggf f2 | a2 a2 ba | aggf f2 | (3def (3def (3def |{f} g4 ec | defgec | d4 :| %18
[M:3/4]"^Trio" !fermata!d4 e2 | f3 g a2 | f3 g a2 | ag f2 e2 | d4 e2 | f3 g a2 | a2 g2 f2 | %25
 f2 e2 z2 :: f2 feed | d4 z2 | g2 gffe | e4 z2 | a2 a2 a2 | b3 a g2 | fg f2 e2 | d4 z2!D.C.! :| %34
V:2
 !fermata!d2 | FdFdFd | e4 GE | FdFdFd | G2 C2 C2 | FdFdFd | e4 GE | FGABGE | F4 :: de | f4 gf | %11
 feed d2 | f2 f2 gf | feed d2 | FdFdFd | e4 GE | FGABGE | F4 :|[M:3/4] F4 G2 | d3 e f2 | d3 e f2 | %21
 fe d2 c2 | F4 G2 | d3 e f2 | f2 e2 d2 | d2 c2 z2 :: A2 AGGF | F4 z2 | e2 eddc | c4 z2 | f2 f2 f2 | %31
 g3 f e2 | de d2 G2 | F4 z2 :| %34

